X: 386
T:Brosnan's
M:4/4
L:1/8
Z:Rachel Marsh
K:Bm
FBBA Bcde | f2 fe dcBA | FA ~A2 FAEA | FA ~A2 FAEA |
FBBA Bcde | f2 fe dcBA | fdec dcBA|1 FBBA BcBA:||2FBBA
Bcde||
fBBA Bcde | f2 ba fede | fB ~B2 fBdf | e2 ce ABce |
fBBA Bcde | f2 ba fede | fdec dcBA | FBBA B4 :||

